app/img/icons/ic--fire.svg

<svg xmlns="http://www.w3.org/2000/svg" preserveAspectRatio="xMidYMid" width="17.063" height="30.219" viewBox="0 0 17.063 30.219"><defs><style>.cls-1{fill:#fff;fill-rule:evenodd}</style></defs><path d="M3.684 26.882c-.515-.168-.821-.816-.681-1.446.139-.622.667-1.009 1.195-.841l4.839 1.581 4.839-1.581c.522-.168 1.05.219 1.189.841.146.63-.167 1.278-.688 1.446l-1.557.522 1.557.496c.521.168.834.815.688 1.446-.139.63-.667 1.009-1.189.832l-4.839-1.564-4.839 1.564c-.528.177-1.056-.202-1.195-.832-.14-.631.166-1.278.681-1.446l1.571-.496-1.571-.522zm2.656-2.691c-1.718-.673-3.052-1.589-4.033-2.707C1.091 20.122.409 18.456.138 16.69c-.264-1.74-.111-3.582.362-5.398.591-2.32 1.724-4.575 3.198-6.458.215-.303.591-.303.82-.033.153.151.202.403.181.621-.153 1.212-.077 2.061.18 2.675.188.487.502.858.884 1.177 2.371-1.867 1.286-5.617.514-8.241L6.249.949c-.104-.37.063-.773.362-.9a.495.495 0 0 1 .507.06c1.801 1.277 2.997 2.606 3.789 4.203.647 1.295 1.023 2.742 1.259 4.424.063-.101.118-.211.167-.32.18-.404.229-.916.18-1.463-.048-.386.181-.723.501-.79a.529.529 0 0 1 .424.143c1.655 1.538 2.809 3.792 3.323 6.18.313 1.43.411 2.901.23 4.306-.167 1.429-.598 2.783-1.335 3.935-.862 1.345-2.114 2.388-3.824 2.943-.306.101-.626-.134-.716-.505a.8.8 0 0 1 .077-.555c.458-.907.681-1.555.729-2.211l.008-.185a6.66 6.66 0 0 1-.751 1.353c-.564.791-1.12 1.145-1.669 1.464-.257.151-.542.05-.695-.194-.897-1.244-1.203-2.766-1.279-3.893-.473.825-.862 2.22-.452 4.407.076.369-.126.756-.438.857a.61.61 0 0 1-.306-.017zM3.107 20.45c.681.764 1.564 1.438 2.669 1.983-.347-4.035 1.822-5.591 2.052-5.726a.487.487 0 0 1 .375-.109c.32.042.542.395.514.791 0 0-.292 2.311.71 4.095.299-.203.583-.446.869-.842.438-.621.883-1.588 1.335-3.203.062-.236.215-.429.424-.496.32-.101.639.151.709.521.264 1.278.389 2.169.327 3.061a4.875 4.875 0 0 1-.216 1.16 5.657 5.657 0 0 0 1.85-1.833c.597-.941.959-2.068 1.112-3.262.139-1.22.062-2.506-.209-3.768-.354-1.631-1.05-3.195-2.037-4.439a3.476 3.476 0 0 1-.215.698 3.382 3.382 0 0 1-1.377 1.539.534.534 0 0 1-.23.092c-.319.042-.604-.227-.646-.63-.188-2.01-.528-3.633-1.224-5.038-.472-.942-1.119-1.799-1.995-2.606.744 2.917 1.092 6.331-1.829 8.265-.18.152-.417.152-.618.017-.709-.504-1.287-1.11-1.634-2.009a4.9 4.9 0 0 1-.334-1.38 16.833 16.833 0 0 0-1.877 4.381c-.417 1.606-.556 3.221-.326 4.726.229 1.48.806 2.859 1.821 4.012z" class="cls-1"/></svg>

<svg xmlns="http://www.w3.org/2000/svg" xmlns:xlink="http://www.w3.org/1999/xlink" preserveAspectRatio="xMidYMid" width="17.063" height="30.219" viewBox="0 0 17.063 30.219">
  <defs>
    <style>
      .cls-1 {
        fill: #fff;
        fill-rule: evenodd;
      }
    </style>
  </defs>
  <path d="M3.684,26.882 C3.169,26.714 2.863,26.066 3.003,25.436 C3.142,24.814 3.670,24.427 4.198,24.595 L9.037,26.176 L13.876,24.595 C14.398,24.427 14.926,24.814 15.065,25.436 C15.211,26.066 14.898,26.714 14.377,26.882 L12.820,27.404 L14.377,27.900 C14.898,28.068 15.211,28.715 15.065,29.346 C14.926,29.976 14.398,30.355 13.876,30.178 L9.037,28.614 L4.198,30.178 C3.670,30.355 3.142,29.976 3.003,29.346 C2.863,28.715 3.169,28.068 3.684,27.900 L5.255,27.404 L3.684,26.882 L3.684,26.882 ZM6.340,24.191 L6.340,24.191 C4.622,23.518 3.288,22.602 2.307,21.484 C1.091,20.122 0.409,18.456 0.138,16.690 C-0.126,14.950 0.027,13.108 0.500,11.292 C1.091,8.972 2.224,6.717 3.698,4.834 C3.913,4.531 4.289,4.531 4.518,4.801 C4.671,4.952 4.720,5.204 4.699,5.422 C4.546,6.634 4.622,7.483 4.879,8.097 L4.879,8.097 C5.067,8.584 5.381,8.955 5.763,9.274 C8.134,7.407 7.049,3.657 6.277,1.033 L6.249,0.949 C6.145,0.579 6.312,0.176 6.611,0.049 C6.792,-0.026 6.980,-0.001 7.118,0.109 C8.919,1.386 10.115,2.715 10.907,4.312 C11.554,5.607 11.930,7.054 12.166,8.736 C12.229,8.635 12.284,8.525 12.333,8.416 C12.513,8.012 12.562,7.500 12.513,6.953 C12.465,6.567 12.694,6.230 13.014,6.163 C13.167,6.145 13.320,6.196 13.438,6.306 C15.093,7.844 16.247,10.098 16.761,12.486 C17.074,13.916 17.172,15.387 16.991,16.792 C16.824,18.221 16.393,19.575 15.656,20.727 C14.794,22.072 13.542,23.115 11.832,23.670 C11.526,23.771 11.206,23.536 11.116,23.165 C11.075,22.964 11.102,22.779 11.193,22.610 C11.651,21.703 11.874,21.055 11.922,20.399 L11.930,20.214 C11.693,20.777 11.436,21.214 11.179,21.567 C10.615,22.358 10.059,22.712 9.510,23.031 C9.253,23.182 8.968,23.081 8.815,22.837 C7.918,21.593 7.612,20.071 7.536,18.944 C7.063,19.769 6.674,21.164 7.084,23.351 C7.160,23.720 6.958,24.107 6.646,24.208 C6.535,24.225 6.430,24.225 6.340,24.191 L6.340,24.191 ZM3.107,20.450 L3.107,20.450 C3.788,21.214 4.671,21.888 5.776,22.433 C5.429,18.398 7.598,16.842 7.828,16.707 C7.931,16.623 8.057,16.581 8.203,16.598 C8.523,16.640 8.745,16.993 8.717,17.389 C8.717,17.389 8.425,19.700 9.427,21.484 C9.726,21.281 10.010,21.038 10.296,20.642 C10.734,20.021 11.179,19.054 11.631,17.439 C11.693,17.203 11.846,17.010 12.055,16.943 C12.375,16.842 12.694,17.094 12.764,17.464 C13.028,18.742 13.153,19.633 13.091,20.525 C13.063,20.912 13.000,21.299 12.875,21.685 C13.654,21.214 14.258,20.584 14.725,19.852 C15.322,18.911 15.684,17.784 15.837,16.590 C15.976,15.370 15.899,14.084 15.628,12.822 C15.274,11.191 14.578,9.627 13.591,8.383 C13.542,8.635 13.466,8.870 13.376,9.081 C13.091,9.703 12.652,10.232 11.999,10.620 C11.930,10.670 11.860,10.695 11.769,10.712 C11.450,10.754 11.165,10.485 11.123,10.082 C10.935,8.072 10.595,6.449 9.899,5.044 C9.427,4.102 8.780,3.245 7.904,2.438 C8.648,5.355 8.996,8.769 6.075,10.703 C5.895,10.855 5.658,10.855 5.457,10.720 C4.748,10.216 4.170,9.610 3.823,8.711 C3.656,8.307 3.545,7.861 3.489,7.331 C2.655,8.702 2.015,10.199 1.612,11.712 C1.195,13.318 1.056,14.933 1.286,16.438 C1.515,17.918 2.092,19.297 3.107,20.450 L3.107,20.450 Z" class="cls-1"/>
</svg>
